X:1
T:Till the Boat Comes By
T:Till the Boat Comes By
T:John Robson Sweney
T:Frances Jane (Fanny) Crosby, 1900
T:Public Domain Courtesy of the Cyber Hymnal™
T:Public Domain Courtesy of the Cyber Hymnal™
C:John Robson Sweney
Z:Public Domain
Z:Courtesy of the Cyber Hymnal™
%%score ( 1 2 ) ( 3 4 )
L:1/8
Q:1/4=103
M:3/4
K:F
V:1 treble 
V:2 treble 
V:3 bass 
V:4 bass 
V:1
 [FA][FA] [FA]2 [CF]2 | [CE][CF] [FA]2 [EG]2 | [EB][EB] [EB]2 [EG]2 | F[EG] [FA]4 | %4
w: 1.~In the house of|ma- ny man- sions,|With its por- tals|bright and fair,|
w: 2.~I have seen it|in the dist- ance,|As it bent its|snow- y sail,|
w: 3.~In the house of|ma- ny man- sions,|Dwells my Sav- ior|and my king;|
w: 4.~Oh, that boat will|soon be com- ing,|It will bear me|home, I know,|
 [Fc][Fc] [Fc]2 [FA]2 | G[^FA] [Gc]2 [GB]2 | [CG][DF] [CF]2 [CE]2 | [FA][EG] F4 || %8
w: I am lay- ing|up my trea- sures,|And my heart will|soon be there.|
w: To the mu- sic|of the wa- ters,|And the whis- per|of the gale.|
w: I shall see Him|in His beau- ty,|And His praise my|tongue shall sing.|
w: To the house of|ma- ny man- sions,|And the friends of|long a- go.|
[M:6/8]"^Refrain" ([Fc]3- c=B)[Fc] | [FA]3 [CF]3 | ([EG]3- GC)[CA] | [CG]3 [CF]3 | %12
w: ||||
w: At * * *|the ri-|ver * * that|di- vides|
w: ||||
w: ||||
 ([DF]3- FB)[Fd] | [Fc]3 [FA]3 | ([EG-]3 GA)[FG] | c3- [Gc]3 | [Fc]3- c=B[Fc] | [FA]3 [CF]3 | %18
w: ||||||
w: me * * From|my Fa-|ther’s * * house|on high,||I am|
w: ||||||
w: ||||||
 ([DF]3- FB)[Fd] | [Fd]3 [Fc]3 | ([Fc]3- cA)F | [EG]3 A3 | F6 | [CF]3- [CF]2 z |] %24
w: ||||||
w: wait- * * ing,|I am|watch- * * *|ing, Till|the||
w: ||||||
w: ||||||
V:2
 x6 | x6 | x6 | F x5 | x6 | G x5 | x6 | x2 F4 ||[M:6/8] x3 F2 x | x6 | x3 E2 x | x6 | x3 D2 x | %13
 x6 | x3 F2 x | E2 F x3 | x3 F2 x | x6 | x3 D2 x | x6 | x3 F2 F | x3 (C2 C) | C3 D3 | x6 |] %24
V:3
 [F,C][F,C] [F,C]2 [F,A,]2 | [G,B,][F,A,] [C,C]2 [C,C]2 | [C,G,][C,G,] [C,G,]2 [B,C]2 | %3
w: ~ ~ ~ ~|~ ~ ~ ~|~ ~ ~ ~|
 [A,C][G,C] [F,C]4 | [F,A,][F,A,] [F,A,]2 [F,C]2 | [B,D][A,D] [G,D]2 [G,D]2 | %6
w: ~ ~ ~|~ ~ ~ ~|~ ~ ~ ~|
 [B,,B,][B,,B,] [B,,B,]2 [C,G,]2 | [C,C][C,B,] [F,A,]4 ||[M:6/8] [F,A,]2 [F,A,] (A,^G,)[F,A,] | %9
w: ~ ~ ~ ~|~ ~ ~|At the flow- * ing|
 [F,C]3 [F,^B,]3 | [C,B,]2 [C,B,] [C,B,]2 [C,B,] | [F,B,]3 [F,A,]3 | [B,,B,]3 [B,,B,]3 | %13
w: ri- ver,|riv- er that di-|vides me|From my|
 [F,A,]2 [F,A,] [F,C]3 | [G,C]2 [G,C] (=B,C)[G,D] | (CG,)[C,A,] [C,B,]3 | %16
w: Fa- ther’s house,|from my Fa- * ther’s|house * on high,|
 [F,A,]2 [F,A,] (A,^G,)[F,A,] | [F,C]3 [F,A,]3 | [B,,B,]2 [B,,B,] [B,,B,]2 [B,,B,] | %19
w: I am wait- * ing,|wait- ing,|I am watch- ing,|
 [F,B,]3 [F,A,]3 | [F,A,]3 [F,A,]3 | [C,B,]3 [C,C]2 [C,C] | [F,A,]3 [F,B,]3 | [F,A,]3- [F,A,]2 z |] %24
w: watch- ing,|Till the|boat, till the|boat comes|by. *|
V:4
 x6 | x6 | x6 | x6 | x6 | x6 | x6 | x6 ||[M:6/8] x3 F,2 x | x6 | x6 | x6 | x6 | x6 | x3 G,2 x | %15
 C,2 x4 | x3 F,2 x | x6 | x6 | x6 | x6 | x6 | x6 | x6 |] %24

